src/icons/svg/credit-card.svg

<?xml version="1.0"?><svg xmlns="http://www.w3.org/2000/svg" width="40" height="40" viewBox="0 0 40 40"><path  d="m36.5 4.1q1.4 0 2.4 0.9t1 2.4v25.2q0 1.4-1 2.4t-2.4 0.9h-33.2q-1.3 0-2.3-0.9t-1-2.4v-25.2q0-1.4 1-2.4t2.3-0.9h33.2z m-33.2 2.6q-0.2 0-0.4 0.2t-0.2 0.5v4.6h34.5v-4.6q0-0.3-0.2-0.5t-0.5-0.2h-33.2z m33.2 26.6q0.3 0 0.5-0.2t0.2-0.5v-12.6h-34.5v12.6q0 0.3 0.2 0.5t0.4 0.2h33.2z m-31.2-2.7v-2.6h5.3v2.6h-5.3z m8 0v-2.6h8v2.6h-8z"></path></svg>

<svg xmlns="http://www.w3.org/2000/svg" width="40" height="40" viewBox="0 0 40 40"><path d="M36.5 4.1q1.4 0 2.4.9t1 2.4v25.2q0 1.4-1 2.4t-2.4.9H3.3Q2 35.9 1 35t-1-2.4V7.4Q0 6 1 5t2.3-.9h33.2zM3.3 6.7q-.2 0-.4.2t-.2.5V12h34.5V7.4q0-.3-.2-.5t-.5-.2H3.3zm33.2 26.6q.3 0 .5-.2t.2-.5V20H2.7v12.6q0 .3.2.5t.4.2h33.2zM5.3 30.6V28h5.3v2.6H5.3zm8 0V28h8v2.6h-8z"/></svg>
